X:1
T: Lady Terfichen
C:
R:Reel
Q: 232
K:Em
M:4/4
L:1/8
|:EE GE A1/2A1/2A B2|EG GB c1/2c1/2c ce|dB gB A1/2A1/2A B2|Ec BA G2 E2|
EE GE A1/2A1/2A B2|EG GB c1/2c1/2c ce|dB gB A1/2A1/2A B2|Ec BA G2 E2|
gd ge ag ab|ga df g2 d2|gd ge ag ab|ga df gg ab|
ge gB A1/2A1/2A B2|EG GB c1/2c1/2c e2|dB gB A1/2A1/2A B2|Ec BA G2 E2:|
